X:1
T:Title
%%score { ( 1 3 ) | ( 2 4 ) }
L:1/8
Q:1/4=100
M:6/8
K:Eb
V:1 treble nm="Grand Piano"
V:3 treble 
V:2 bass 
V:4 bass 
V:1
 G2 G GFE | B2 B B3 | G2 G GFE | [DF]6 | G2 G GFE | B2 B B3 | F2 F =AGA | [DB]6 | B2 G EGc | B6 | %10
w: J.~Lincoln~Hall * * * *||||||||||
 B2 G EG[Ge] | c6 | [GB][GB][GB] [FA]2 [DB] | GGG E2 G | FBd d2 c | [DB]6 | B2 G EGc | B6 | %18
w: ||||||||
 B2 G EG[Ge] | c6 | ddd c2 d |[M:7/8] [Ge][Ge][Ge] c3 c |[M:3/4] BG [EB] [DA]2 [DF] | [B,E]6 |] %24
w: ||||||
V:2
 [E,B,E]2 [E,B,E] [E,B,E][E,A,D][E,G,] | [E,G,E]2 [F,A,D] [G,B,E]3 | %2
 [E,B,E]2 [E,B,E] [E,B,E][E,A,D][E,G,] | [B,,B,]6 | [E,B,E]2 [E,B,E] [E,B,E][E,A,D][E,G,] | %5
 [E,G,E]2 [F,A,D] [G,B,E]3 | [F,B,D]2 [F,B,D] [F,CE][F,B,E][F,CE] | B,3 z3 | %8
 [E,G,E]2 [E,B,E] [E,G,][E,B,E][E,A,E] | [E,G,E]2 [F,A,] [G,B,]3 | %10
 [E,G,E]2 [E,B,E] [E,G,][E,B,E][E,B,] | [A,CA]2 [A,E] [A,E]2 [A,EA] | %12
 [E,E][E,E][E,E] [D,B,]2 [B,,B,] | [E,B,E][E,B,E][E,B,E] [E,G,]2 [E,B,E] | %14
 [F,B,D][F,B,D][F,B,F] [F,=A,F]2 [F,A,E] | B,3 z3 | [E,G,E]2 [E,B,E] [E,G,][E,B,E][E,A,E] | %17
 [E,G,E]2 [F,A,] [G,B,]3 | [E,G,E]2 [E,B,E] [E,G,][E,B,E][E,B,] | [A,CA]2 [A,E] [A,E]2 [A,EA] | %20
 [B,DA][B,FA][B,FA] [B,EA]2 [B,FA] |[M:7/8][K:bass] [E,E][E,E][E,E][K:treble] [A,EA]3 [A,EA] | %22
[M:3/4] [B,EG][K:bass][B,E] [B,,G,] [B,,F,]2 [B,,A,] | [E,G,]6 |] %24
V:3
 x6 | x6 | x6 | x6 | x6 | x6 | x6 | z3 A,3 | x6 | z2 D .E3 | x6 | z2 A A2 c | x6 | x6 | x6 | %15
 z3 A,3 | x6 | z2 D .E3 | x6 | z2 A A2 c | x6 |[M:7/8] x7 |[M:3/4] x6 | x6 |] %24
V:4
 x6 | x6 | x6 | x6 | x6 | x6 | x6 | B,,6 | x6 | x6 | x6 | x6 | x6 | x6 | x6 | B,,6 | x6 | x6 | x6 | %19
 x6 | x6 |[M:7/8][K:bass] x3[K:treble] x4 |[M:3/4] x[K:bass] x5 | x6 |] %24

